src/16/archive-16.svg

<?xml version="1.0" encoding="iso-8859-1"?>
<!-- Generator: Adobe Illustrator 19.1.0, SVG Export Plug-In . SVG Version: 6.00 Build 0)  -->
<!DOCTYPE svg PUBLIC "-//W3C//DTD SVG 1.1 Tiny//EN" "http://www.w3.org/Graphics/SVG/1.1/DTD/svg11-tiny.dtd">
<svg version="1.1" baseProfile="tiny" xmlns="http://www.w3.org/2000/svg" xmlns:xlink="http://www.w3.org/1999/xlink" x="0px"
	 y="0px" viewBox="0 0 16 16" xml:space="preserve">
<g id="Layer_1">
	<path d="M15.5,6h-15C0.224,6,0,5.776,0,5.5v-3C0,2.224,0.224,2,0.5,2h15C15.776,2,16,2.224,16,2.5v3C16,5.776,15.776,6,15.5,6z
		 M1,5h14V3H1V5z"/>
	<path d="M14.5,14h-13C1.224,14,1,13.776,1,13.5v-8C1,5.224,1.224,5,1.5,5h13C14.776,5,15,5.224,15,5.5v8
		C15,13.776,14.776,14,14.5,14z M2,13h12V6H2V13z"/>
	<path d="M10.5,10h-5C5.224,10,5,9.776,5,9.5v-2C5,7.224,5.224,7,5.5,7h5C10.776,7,11,7.224,11,7.5v2C11,9.776,10.776,10,10.5,10z
		 M6,9h4V8H6V9z"/>
</g>
<g id="Layer_2">
</g>
<g id="Layer_3">
</g>
</svg>

<svg baseProfile="tiny" xmlns="http://www.w3.org/2000/svg" viewBox="0 0 16 16"><path d="M15.5 6H.5a.5.5 0 0 1-.5-.5v-3A.5.5 0 0 1 .5 2h15a.5.5 0 0 1 .5.5v3a.5.5 0 0 1-.5.5zM1 5h14V3H1v2z"/><path d="M14.5 14h-13a.5.5 0 0 1-.5-.5v-8a.5.5 0 0 1 .5-.5h13a.5.5 0 0 1 .5.5v8a.5.5 0 0 1-.5.5zM2 13h12V6H2v7z"/><path d="M10.5 10h-5a.5.5 0 0 1-.5-.5v-2a.5.5 0 0 1 .5-.5h5a.5.5 0 0 1 .5.5v2a.5.5 0 0 1-.5.5zM6 9h4V8H6v1z"/></svg>
